dist/images/svg/sprite/icon-design.svg

<svg width="48" height="48" viewBox="0 0 48 48" fill="none" xmlns="http://www.w3.org/2000/svg">
<path d="M43.0982 5.09087H42C42.7127 3.17814 42.6182 1.77451 41.6727 1.0836C39.8036 -0.276402 37.6291 2.62542 36.9091 3.57814C36.8509 3.65087 36.8073 3.70905 36.7782 3.74542C36.4436 4.15996 36.1455 4.63269 35.8546 5.09087H4.90182C4.08265 5.09279 3.29758 5.41906 2.71834 5.9983C2.1391 6.57754 1.81283 7.36261 1.81091 8.18178V35.28C1.81283 36.0991 2.1391 36.8842 2.71834 37.4634C3.29758 38.0427 4.08265 38.3689 4.90182 38.3709H15.5273V42.5236H13.9782C12.4727 42.5236 11.2436 43.7527 11.2436 45.2581V46.0291H8.41455C8.07273 46.0291 7.79637 46.3054 7.79637 46.6472C7.79637 46.9891 8.07273 47.2727 8.41455 47.2727H39.5782C39.7421 47.2727 39.8994 47.2076 40.0153 47.0916C40.1312 46.9757 40.1964 46.8185 40.1964 46.6545C40.1964 46.4906 40.1312 46.3333 40.0153 46.2174C39.8994 46.1015 39.7421 46.0363 39.5782 46.0363H36.7491V45.2654C36.7491 43.76 35.52 42.5309 34.0146 42.5309H32.4655V38.3781H43.0909C43.9101 38.3762 44.6952 38.05 45.2744 37.4707C45.8536 36.8915 46.1799 36.1064 46.1818 35.2872V8.18905C46.1964 6.47996 44.8073 5.09087 43.0982 5.09087ZM35.52 45.2654V46.0363H12.48V45.2654C12.48 44.4363 13.1491 43.7672 13.9782 43.7672H34.0291C34.8509 43.7672 35.52 44.4363 35.52 45.2654ZM36.8436 5.83996C37.1346 5.38178 37.4327 4.90905 37.7382 4.53087C37.7746 4.48723 37.8255 4.41451 37.8982 4.32723C39.7818 1.81814 40.6182 1.84723 40.9455 2.08723C41.4546 2.45814 41.4618 4.19633 39.4109 7.46178C38.8524 8.34268 38.2429 9.19019 37.5855 9.99996L35.3455 8.58178C35.7818 7.65814 36.2909 6.71996 36.8436 5.83996ZM34.6909 13.6363C35.0036 14.0291 35.28 14.64 34.8582 15.3381C33.6146 17.3891 31.7891 17.4545 30.4364 17.12C30.8655 16.6618 31.3527 15.8836 31.4036 14.6545C31.44 13.92 31.6364 12.9963 32.4146 12.7418C33.12 12.5236 34.1164 12.9163 34.6909 13.6363ZM35.2946 12.3927L34.1746 11.6872C34.32 11.1054 34.5527 10.4291 34.8436 9.71633L36.7782 10.9309C36.2618 11.5127 35.76 12.0072 35.2946 12.3927ZM4.90182 6.32723H35.1273C34.1164 8.13087 33.3236 10.0072 32.9746 11.4545C32.6546 11.44 32.3346 11.4763 32.0436 11.5781C31.3891 11.7891 30.2764 12.4654 30.1818 14.6036C30.1455 15.3381 29.9127 15.92 29.4909 16.3345C29.1927 16.6254 29.0764 17.0472 29.1855 17.4545C29.2946 17.8618 29.6073 18.1818 30.0146 18.2909C30.4655 18.4072 31.0255 18.5163 31.6509 18.5163C33.04 18.5163 34.7055 18 35.9273 15.9854C36.4218 15.1781 36.4364 14.2472 36.0073 13.4109C37.4109 12.2763 39.1273 10.2472 40.4727 8.11633C40.8655 7.49087 41.2 6.89451 41.4764 6.33451H43.1127C44.1382 6.33451 44.9673 7.17087 44.9673 8.18905V29.7381H43.7527L37.1855 19.8909C36.9236 19.4981 36.4873 19.2654 36.0146 19.2654C35.5418 19.2654 35.1055 19.4981 34.8509 19.8763L32.2109 23.5854L26.8946 15.6072C26.7637 15.4142 26.5876 15.2561 26.3816 15.1469C26.1756 15.0376 25.9459 14.9805 25.7127 14.9805C25.4795 14.9805 25.2499 15.0376 25.0439 15.1469C24.8379 15.2561 24.6617 15.4142 24.5309 15.6072L20.4436 21.7309V13.9272C20.4436 13.12 19.7891 12.4654 18.9818 12.4654H6.88C6.07273 12.4654 5.41819 13.12 5.41819 13.9272V25.3309C5.41819 26.1381 6.07273 26.7927 6.88 26.7927H17.0691L15.1055 29.7309H3.04V8.18905C3.04 7.1636 3.87637 6.32723 4.90182 6.32723ZM6.88 25.5563C6.75637 25.5563 6.64728 25.4545 6.64728 25.3236V13.9272C6.64728 13.8036 6.7491 13.6945 6.88 13.6945H18.9818C19.1055 13.6945 19.2073 13.7963 19.2073 13.9272V25.3309C19.2073 25.4545 19.1055 25.5636 18.9818 25.5636H6.88V25.5563ZM18.9818 26.7927C19.7891 26.7927 20.4436 26.1381 20.4436 25.3309V23.9563L21.9418 21.7091L22.6764 22.4654C22.9091 22.7054 23.3236 22.7054 23.5564 22.4654L24.4 21.6L25.2509 22.4654C25.3677 22.5819 25.526 22.6472 25.6909 22.6472C25.8559 22.6472 26.0141 22.5819 26.1309 22.4654L26.9746 21.6L27.8255 22.4654C27.9418 22.5818 28.1018 22.6472 28.2618 22.6472C28.4218 22.6472 28.5891 22.5818 28.6982 22.4654L29.4473 21.7018L34.8 29.7381H16.5891L18.5527 26.8H18.9818V26.7927ZM22.6473 20.6545L25.5564 16.2909C25.6 16.2181 25.6727 16.2109 25.7091 16.2109C25.7164 16.1963 25.8109 16.2181 25.8618 16.2836L28.7709 20.6472L28.2836 21.1418L27.4327 20.2763C27.3159 20.1599 27.1577 20.0945 26.9927 20.0945C26.8278 20.0945 26.6696 20.1599 26.5527 20.2763L25.7091 21.1418L24.8582 20.2763C24.7418 20.16 24.6036 20.1018 24.4146 20.0945C24.2473 20.0945 24.0873 20.16 23.9709 20.2763L23.1273 21.1345L22.6473 20.6545ZM36.3055 29.7309L32.9309 24.6691L35.8546 20.56C35.8982 20.4945 35.9636 20.48 36 20.48C36.0146 20.4727 36.1018 20.4872 36.1455 20.56L42.2546 29.7236H36.3055V29.7309ZM31.2364 42.5309H16.7636V38.3781H31.2436V42.5309H31.2364ZM44.96 35.2872C44.96 36.3127 44.1236 37.1418 43.1055 37.1418H4.90182C3.87637 37.1418 3.04728 36.3054 3.04728 35.2872V30.9672H44.9673V35.2872H44.96Z" fill="white"/>
<path d="M22.8582 34.6689H25.1492C25.3131 34.6689 25.4703 34.6038 25.5863 34.4878C25.7022 34.3719 25.7673 34.2147 25.7673 34.0507C25.7673 33.8868 25.7022 33.7295 25.5863 33.6136C25.4703 33.4977 25.3131 33.4325 25.1492 33.4325H22.8582C22.6943 33.4325 22.5371 33.4977 22.4211 33.6136C22.3052 33.7295 22.2401 33.8868 22.2401 34.0507C22.2401 34.2147 22.3052 34.3719 22.4211 34.4878C22.5371 34.6038 22.6943 34.6689 22.8582 34.6689ZM10.0073 16.9162H9.65097V16.2471C9.65097 16.1659 9.63498 16.0855 9.60392 16.0105C9.57285 15.9355 9.52732 15.8674 9.46991 15.81C9.41251 15.7526 9.34436 15.707 9.26936 15.676C9.19436 15.6449 9.11397 15.6289 9.03279 15.6289C8.95161 15.6289 8.87122 15.6449 8.79622 15.676C8.72122 15.707 8.65307 15.7526 8.59567 15.81C8.53827 15.8674 8.49273 15.9355 8.46167 16.0105C8.4306 16.0855 8.41461 16.1659 8.41461 16.2471V16.9162H8.05825C7.89429 16.9162 7.73706 16.9813 7.62112 17.0972C7.50519 17.2132 7.44006 17.3704 7.44006 17.5344C7.44006 17.6983 7.50519 17.8555 7.62112 17.9715C7.73706 18.0874 7.89429 18.1525 8.05825 18.1525H8.41461V23.0107C8.41461 23.0919 8.4306 23.1723 8.46167 23.2473C8.49273 23.3223 8.53827 23.3904 8.59567 23.4478C8.65307 23.5052 8.72122 23.5508 8.79622 23.5818C8.87122 23.6129 8.95161 23.6289 9.03279 23.6289C9.11397 23.6289 9.19436 23.6129 9.26936 23.5818C9.34436 23.5508 9.41251 23.5052 9.46991 23.4478C9.52732 23.3904 9.57285 23.3223 9.60392 23.2473C9.63498 23.1723 9.65097 23.0919 9.65097 23.0107V18.1525H10.0073C10.1713 18.1525 10.3285 18.0874 10.4445 17.9715C10.5604 17.8555 10.6255 17.6983 10.6255 17.5344C10.6255 17.3704 10.5604 17.2132 10.4445 17.0972C10.3285 16.9813 10.1713 16.9162 10.0073 16.9162ZM14.1092 19.3889H13.7528V16.2544C13.7528 16.0904 13.6877 15.9332 13.5717 15.8172C13.4558 15.7013 13.2986 15.6362 13.1346 15.6362C12.9707 15.6362 12.8134 15.7013 12.6975 15.8172C12.5816 15.9332 12.5164 16.0904 12.5164 16.2544V19.3889H12.1601C11.9961 19.3889 11.8389 19.454 11.7229 19.57C11.607 19.6859 11.5419 19.8431 11.5419 20.0071C11.5419 20.171 11.607 20.3283 11.7229 20.4442C11.8389 20.5601 11.9961 20.6253 12.1601 20.6253H12.5164V23.018C12.5164 23.1819 12.5816 23.3392 12.6975 23.4551C12.8134 23.5711 12.9707 23.6362 13.1346 23.6362C13.2986 23.6362 13.4558 23.5711 13.5717 23.4551C13.6877 23.3392 13.7528 23.1819 13.7528 23.018V20.6253H14.1092C14.451 20.6253 14.7273 20.3489 14.7273 20.0071C14.7273 19.658 14.451 19.3889 14.1092 19.3889ZM17.8037 17.7089H17.4473V16.2471C17.4473 16.0831 17.3822 15.9259 17.2663 15.81C17.1503 15.694 16.9931 15.6289 16.8292 15.6289C16.6652 15.6289 16.508 15.694 16.392 15.81C16.2761 15.9259 16.211 16.0831 16.211 16.2471V17.7089H15.8546C15.6907 17.7089 15.5334 17.774 15.4175 17.89C15.3016 18.0059 15.2364 18.1631 15.2364 18.3271C15.2364 18.491 15.3016 18.6483 15.4175 18.7642C15.5334 18.8801 15.6907 18.9453 15.8546 18.9453H16.211V23.0107C16.211 23.1747 16.2761 23.3319 16.392 23.4478C16.508 23.5638 16.6652 23.6289 16.8292 23.6289C16.9931 23.6289 17.1503 23.5638 17.2663 23.4478C17.3822 23.3319 17.4473 23.1747 17.4473 23.0107V18.9453H17.8037C17.9677 18.9453 18.1249 18.8801 18.2408 18.7642C18.3568 18.6483 18.4219 18.491 18.4219 18.3271C18.4219 18.1631 18.3568 18.0059 18.2408 17.89C18.1249 17.774 17.9677 17.7089 17.8037 17.7089Z" fill="white"/>
</svg>

<svg width="48" height="48" fill="none" xmlns="http://www.w3.org/2000/svg"><path d="M43.098 5.09H42c.713-1.912.618-3.315-.327-4.006-1.87-1.36-4.044 1.541-4.764 2.494l-.13.167c-.335.415-.634.888-.924 1.346H4.902A3.098 3.098 0 0 0 1.81 8.18V35.28a3.098 3.098 0 0 0 3.09 3.09h10.626v4.154h-1.549a2.74 2.74 0 0 0-2.734 2.734v.771h-2.83a.618.618 0 0 0-.618.618c0 .342.277.626.619.626h31.163a.618.618 0 1 0 0-1.237H36.75v-.77a2.74 2.74 0 0 0-2.734-2.735h-1.55v-4.153h10.626a3.098 3.098 0 0 0 3.09-3.09V8.188a3.079 3.079 0 0 0-3.083-3.098ZM35.52 45.266v.771H12.48v-.77c0-.83.67-1.499 1.498-1.499H34.03c.822 0 1.491.67 1.491 1.498ZM36.844 5.84c.29-.458.589-.931.894-1.31.037-.043.087-.115.16-.203 1.884-2.509 2.72-2.48 3.047-2.24.51.371.517 2.11-1.534 5.375A26.768 26.768 0 0 1 37.586 10l-2.24-1.418c.436-.924.945-1.862 1.498-2.742Zm-2.153 7.796c.313.393.589 1.004.167 1.702-1.243 2.051-3.069 2.117-4.422 1.782.43-.458.917-1.236.968-2.466.036-.734.232-1.658 1.01-1.912.706-.218 1.702.174 2.277.894Zm.604-1.243-1.12-.706c.145-.582.378-1.258.669-1.97l1.934 1.214a13.864 13.864 0 0 1-1.483 1.462ZM4.902 6.327h30.225c-1.01 1.804-1.803 3.68-2.152 5.127a2.49 2.49 0 0 0-.931.124c-.655.211-1.768.887-1.862 3.026-.037.734-.27 1.316-.691 1.73a1.14 1.14 0 0 0-.305 1.12c.109.408.421.728.829.837.45.116 1.01.225 1.636.225 1.389 0 3.055-.516 4.276-2.53.495-.808.51-1.739.08-2.575 1.404-1.135 3.12-3.164 4.466-5.295.392-.625.727-1.221 1.003-1.781h1.637c1.025 0 1.854.836 1.854 1.854v21.55h-1.214l-6.568-9.848a1.401 1.401 0 0 0-1.17-.626c-.473 0-.91.233-1.164.611l-2.64 3.71-5.316-7.979a1.428 1.428 0 0 0-2.364 0l-4.087 6.124v-7.804c0-.807-.655-1.462-1.462-1.462H6.88c-.807 0-1.462.655-1.462 1.462v11.404c0 .807.655 1.462 1.462 1.462h10.19l-1.965 2.938H3.04V8.189c0-1.025.836-1.862 1.862-1.862Zm1.978 19.23a.234.234 0 0 1-.233-.233V13.927c0-.123.102-.232.233-.232h12.102c.123 0 .225.101.225.232v11.404a.233.233 0 0 1-.225.233H6.88v-.008Zm12.102 1.236c.807 0 1.462-.655 1.462-1.462v-1.375l1.498-2.247.734.756c.233.24.648.24.88 0l.844-.865.85.865a.623.623 0 0 0 .88 0l.845-.865.85.865a.623.623 0 0 0 .437.182.61.61 0 0 0 .436-.182l.75-.763 5.352 8.036H16.59l1.963-2.938h.429v-.007Zm3.665-6.139 2.91-4.363a.17.17 0 0 1 .152-.08c.007-.015.102.007.153.073l2.909 4.363-.487.495-.851-.866a.623.623 0 0 0-.88 0l-.844.866-.85-.866a.62.62 0 0 0-.444-.181.628.628 0 0 0-.444.181l-.844.858-.48-.48Zm13.659 9.077-3.375-5.062 2.924-4.109a.176.176 0 0 1 .145-.08c.015-.007.102.007.145.08l6.11 9.164h-5.95v.007Zm-5.07 12.8H16.764v-4.153h14.48v4.153h-.008Zm13.724-7.244a1.858 1.858 0 0 1-1.855 1.855H4.902a1.858 1.858 0 0 1-1.855-1.855v-4.32h41.92v4.32h-.007Z" fill="#fff"/><path d="M22.858 34.669h2.291a.618.618 0 0 0 0-1.236h-2.29a.619.619 0 0 0 0 1.236Zm-12.85-17.753H9.65v-.669a.618.618 0 1 0-1.236 0v.67h-.357a.618.618 0 1 0 0 1.235h.357v4.859a.618.618 0 1 0 1.236 0v-4.858h.356a.618.618 0 1 0 0-1.237Zm4.101 2.473h-.356v-3.135a.618.618 0 1 0-1.237 0v3.135h-.356a.618.618 0 1 0 0 1.236h.356v2.393a.618.618 0 0 0 1.237 0v-2.393h.356a.618.618 0 0 0 .618-.618.613.613 0 0 0-.618-.618Zm3.695-1.68h-.357v-1.462a.618.618 0 1 0-1.236 0v1.462h-.356a.618.618 0 1 0 0 1.236h.356v4.066a.618.618 0 1 0 1.236 0v-4.066h.357a.618.618 0 0 0 0-1.236Z" fill="#fff"/></svg>
